symbols/web/fiber_pin/materialsymbolssharp/fiber_pin_wght600grad200_48px.svg

<svg xmlns="http://www.w3.org/2000/svg" height="48" width="48"><path d="M27.4 30.15h2.3v-8.9l5.8 8.9h2.6v-12.3h-2.25v8.55l-6.1-8.55H27.4Zm-5.2 0h2.5v-12.3h-2.5Zm-12.35 0h2.5v-4.5h7.55v-7.8H9.85Zm2.5-6.95v-2.85h5.05v2.85ZM3.1 40.9V7.1h41.85v33.8Zm4.15-4.2h33.5V11.3H7.25Zm0 0V11.3v25.4Z"/></svg>

<svg xmlns="http://www.w3.org/2000/svg" height="48" width="48"><path d="M27.4 30.15H29.7V21.25L35.5 30.15H38.1V17.85H35.85V26.4L29.75 17.85H27.4ZM22.2 30.15H24.7V17.85H22.2ZM9.85 30.15H12.35V25.65H19.9V17.85H9.85ZM12.35 23.2V20.35H17.4V23.2ZM3.1 40.9V7.1H44.95V40.9ZM7.25 36.7H40.75V11.3H7.25ZM7.25 36.7V11.3V36.7Z"/></svg>
